X: 11175
T: Dundas Stumble, The
R: hornpipe
M: 4/4
K: Gmajor
(3DEF|:GA (3GFE DC B,D|GA BC' D'B GB|C'E AC' BA GB|
(3ABA (3GFE A2 (3DEF|GA (3GFE DC B,D|GA BC' D'B GB|
C'E AC' BA GF|1 (3ABA GF G2 (3DEF:|2 (3ABA GF G2 BC'||
|:D'B GB D'B GB|C'B C'D' C'2 AB|C'B AC' BA GB|AD' D'^C' D'2 B=C'|
D'B GB AC' BA|GB (3AGF GD B,D|CE AC' BA GF|(3ABA GF G2 z2:|

